src/assets/icons/input/Taunt Icon.svg

<svg viewBox="0 0 712 712" xmlns="http://www.w3.org/2000/svg" xml:space="preserve" style="fill-rule:evenodd;clip-rule:evenodd;stroke-linejoin:round;stroke-miterlimit:2">
  <path style="fill:none" d="M0 0h1080v1080H0z" transform="scale(.65926)"/>
  <g transform="scale(.65926) translate(151.685 151.685)scale(1.51685)">
    <circle cx="256" cy="256" r="256" style="fill:#1c1d1f"/>
    <path d="M256 0c141.29 0 256 114.71 256 256S397.29 512 256 512 0 397.29 0 256 114.71 0 256 0m0 16.667C123.908 16.667 16.667 123.908 16.667 256S123.908 495.333 256 495.333 495.333 388.092 495.333 256 388.092 16.667 256 16.667" style="fill:#8e9198"/>
  </g>
  <path d="M4856.752 1223.941c-41.476-11.657-80.691-33.1-110.125-62.534l17.678-17.677c41.581 41.581 104.89 65.272 163.695 65.272s122.114-23.691 163.695-65.272l17.678 17.677c-29.434 29.434-68.649 50.877-110.125 62.534v17.279c0 41.773-29.475 72.285-71.248 72.285s-71.248-30.512-71.248-72.285zm82.274 9.811q-5.532.25-11.026.25t-11.026-.25c.598 29.293 3.303 54.376 11.026 56.095 7.723-1.719 10.428-26.802 11.026-56.095" style="fill:#ffed00" transform="scale(.65926) translate(-6935.056 -1147.225)scale(1.51685)"/>
  <path d="M721.279 336.052c56.281 0 101.974 45.693 101.974 101.974S777.56 540 721.279 540s-101.974-45.693-101.974-101.974 45.693-101.974 101.974-101.974m33.431 23.398c-26.159 0-47.396 21.238-47.396 47.397s21.237 47.396 47.396 47.396 47.396-21.238 47.396-47.396-21.237-47.397-47.396-47.397" style="fill:#ffed00" transform="scale(.65926) translate(-166.443 -101.08)scale(1.23076)"/>
  <path d="M721.279 312.52c69.268 0 125.505 56.238 125.505 125.506s-56.237 125.506-125.505 125.506c-69.269 0-125.506-56.238-125.506-125.506S652.01 312.52 721.279 312.52m-18.516 121.747c-26.159 0-47.396 21.238-47.396 47.397s21.237 47.396 47.396 47.396 47.396-21.237 47.396-47.396-21.237-47.397-47.396-47.397" style="fill:#ffed00" transform="scale(.65926) translate(-341.014)"/>
</svg>

<?xml version="1.0" encoding="UTF-8" standalone="no"?>
<!DOCTYPE svg PUBLIC "-//W3C//DTD SVG 1.1//EN" "http://www.w3.org/Graphics/SVG/1.1/DTD/svg11.dtd">
<svg width="100%" height="100%" viewBox="0 0 712 712" version="1.1" xmlns="http://www.w3.org/2000/svg" xmlns:xlink="http://www.w3.org/1999/xlink" xml:space="preserve" xmlns:serif="http://www.serif.com/" style="fill-rule:evenodd;clip-rule:evenodd;stroke-linejoin:round;stroke-miterlimit:2;">
    <g transform="matrix(1,0,0,1,-4572,-762)">
        <g id="Kick-Icon" serif:id="Kick Icon" transform="matrix(0.659259,0,0,0.659259,4572,762)">
            <rect x="0" y="0" width="1080" height="1080" style="fill:none;"/>
            <g>
                <g transform="matrix(1.516854,0,0,1.516854,151.685393,151.685393)">
                    <circle cx="256" cy="256" r="256" style="fill:rgb(28,29,31);"/>
                    <path d="M256,0C397.29,0 512,114.71 512,256C512,397.29 397.29,512 256,512C114.71,512 0,397.29 0,256C0,114.71 114.71,0 256,0ZM256,16.667C123.908,16.667 16.667,123.908 16.667,256C16.667,388.092 123.908,495.333 256,495.333C388.092,495.333 495.333,388.092 495.333,256C495.333,123.908 388.092,16.667 256,16.667Z" style="fill:rgb(142,145,152);"/>
                </g>
            </g>
            <g transform="matrix(1.516854,0,0,1.516854,-6935.05618,-1147.225174)">
                <path d="M4856.752,1223.941C4815.276,1212.284 4776.061,1190.841 4746.627,1161.407L4764.305,1143.73C4805.886,1185.311 4869.195,1209.002 4928,1209.002C4986.805,1209.002 5050.114,1185.311 5091.695,1143.73L5109.373,1161.407C5079.939,1190.841 5040.724,1212.284 4999.248,1223.941L4999.248,1241.22C4999.248,1282.993 4969.773,1313.505 4928,1313.505C4886.227,1313.505 4856.752,1282.993 4856.752,1241.22L4856.752,1223.941ZM4939.026,1233.752C4935.339,1233.918 4931.662,1234.002 4928,1234.002C4924.338,1234.002 4920.661,1233.918 4916.974,1233.752C4917.572,1263.045 4920.277,1288.128 4928,1289.847C4935.723,1288.128 4938.428,1263.045 4939.026,1233.752Z" style="fill:rgb(255,237,0);"/>
            </g>
            <g transform="matrix(1.230761,0,0,1.230761,-166.442772,-101.079176)">
                <path d="M721.279,336.052C777.56,336.052 823.253,381.745 823.253,438.026C823.253,494.307 777.56,540 721.279,540C664.998,540 619.305,494.307 619.305,438.026C619.305,381.745 664.998,336.052 721.279,336.052ZM754.71,359.45C728.551,359.45 707.314,380.688 707.314,406.847C707.314,433.005 728.551,454.243 754.71,454.243C780.869,454.243 802.106,433.005 802.106,406.847C802.106,380.688 780.869,359.45 754.71,359.45Z" style="fill:rgb(255,237,0);"/>
            </g>
            <g transform="matrix(1,0,0,1,-341.013913,0)">
                <path d="M721.279,312.52C790.547,312.52 846.784,368.758 846.784,438.026C846.784,507.294 790.547,563.532 721.279,563.532C652.01,563.532 595.773,507.294 595.773,438.026C595.773,368.758 652.01,312.52 721.279,312.52ZM702.763,434.267C676.604,434.267 655.367,455.505 655.367,481.664C655.367,507.823 676.604,529.06 702.763,529.06C728.922,529.06 750.159,507.823 750.159,481.664C750.159,455.505 728.922,434.267 702.763,434.267Z" style="fill:rgb(255,237,0);"/>
            </g>
        </g>
    </g>
</svg>
